X:1
T:Moss Roses. CJF.012
T:Moss Roses. CJF.012
T:Basnett
C:Basnett
L:1/8
Q:1/8=30
M:3/8
K:G
V:1 treble 
V:1
"^p" D | G2 G | BBB | d2 g | d3 | d(Bd) | c3 | BGB | A2"^f" D | (G/F/G/A/B/c/) | dBB | %11
 d/B/(a/g/f/e/) | d2 z | (c/B/A/B)c | Bzd | Azd | G2 z | (G/F/G/A/B/c/) | (d/B/G/B/)d | %19
 d/B/(a/g/f/e/) | (d/"^dol:"^c/e/d/=c/B/) | (c/B/A/B/c) | .Bz.d | .Azd | G2 d | .g.g.g | .b.b.b | %27
 d'2 g' | d'3 | .d'.b.d' | d3 | .b.g.b | a2 d |"^f" .g.g.g | g2 b | bb/a/g/f/ | e2 z | %37
"^p" F3/4(GAB) | (GBd) | (F/G/A/B/c/A/) | G2 z | (A/F/d/c/A/B/) | G2 || %43

